assets/images/system/icon/services/medical-car-icon.svg

<svg width="70" height="70" viewBox="0 0 70 70" fill="none" xmlns="http://www.w3.org/2000/svg">
<path fill-rule="evenodd" clip-rule="evenodd" d="M43.75 11.6667H47.3083C48.7346 11.6667 50.0704 12.3608 50.89 13.5304C53.4042 17.1121 61.25 29.1667 61.25 29.1667C61.25 29.1667 65.31 32.6929 67.0833 34.2154C69.5363 36.3242 70 38.0071 70 40.8333V48.125C70 50.54 68.04 52.5 65.625 52.5H61.25C61.25 57.33 57.33 61.25 52.5 61.25C47.67 61.25 43.75 57.33 43.75 52.5H26.25C26.25 57.33 22.33 61.25 17.5 61.25C12.67 61.25 8.75 57.33 8.75 52.5H2.91667C1.30958 52.5 0 51.1963 0 49.5833V14.5833C0 12.9733 1.30667 11.6667 2.91667 11.6667H37.9167V8.75H43.75V11.6667ZM17.7013 48.8483C19.7137 48.8483 21.35 50.4817 21.35 52.4971C21.35 54.5096 19.7137 56.1458 17.7013 56.1458C15.6858 56.1458 14.0525 54.5096 14.0525 52.4971C14.0525 50.4817 15.6858 48.8483 17.7013 48.8483ZM52.7013 48.8483C54.7138 48.8483 56.35 50.4817 56.35 52.4971C56.35 54.5096 54.7138 56.1458 52.7013 56.1458C50.6858 56.1458 49.0525 54.5096 49.0525 52.4971C49.0525 50.4817 50.6858 48.8483 52.7013 48.8483ZM35 17.5H5.83333V46.6667H10.9813C12.5825 44.8758 14.91 43.75 17.5 43.75C20.09 43.75 22.4175 44.8758 24.0187 46.6667H45.9813C47.5825 44.8758 49.91 43.75 52.5 43.75C55.09 43.75 57.4175 44.8758 59.0188 46.6667H64.1667V40.8333C64.1667 39.4013 64.1667 39.4013 63.28 38.64L59.0713 35H35V17.5ZM23.3333 20.4167V26.25H29.1667V32.0833H23.3333V37.9167H17.5V32.0833H11.6667V26.25H17.5V20.4167H23.3333ZM46.5442 17.5H40.8333V29.1667H54.2821C51.8496 25.4508 48.2913 20.0404 46.5442 17.5Z" fill="#017113"/>
</svg>

<svg xmlns="http://www.w3.org/2000/svg" width="70" height="70" fill="none" xmlns:v="https://vecta.io/nano"><path fill-rule="evenodd" d="M43.75 11.667h3.558a4.37 4.37 0 0 1 3.582 1.864c2.514 3.582 10.36 15.636 10.36 15.636l5.833 5.049C69.536 36.324 70 38.007 70 40.833v7.292a4.38 4.38 0 0 1-4.375 4.375H61.25c0 4.83-3.92 8.75-8.75 8.75s-8.75-3.92-8.75-8.75h-17.5c0 4.83-3.92 8.75-8.75 8.75s-8.75-3.92-8.75-8.75H2.917A2.92 2.92 0 0 1 0 49.583v-35a2.92 2.92 0 0 1 2.917-2.917h35V8.75h5.833v2.917zM17.701 48.848a3.65 3.65 0 0 1 3.649 3.649c0 2.012-1.636 3.649-3.649 3.649a3.65 3.65 0 0 1-3.649-3.649 3.65 3.65 0 0 1 3.649-3.649zm35 0a3.65 3.65 0 0 1 3.649 3.649c0 2.012-1.636 3.649-3.649 3.649a3.65 3.65 0 0 1-3.649-3.649 3.65 3.65 0 0 1 3.649-3.649zM35 17.5H5.833v29.167h5.148A8.72 8.72 0 0 1 17.5 43.75a8.72 8.72 0 0 1 6.519 2.917h21.963a8.72 8.72 0 0 1 13.038 0h5.148v-5.833c0-1.432 0-1.432-.887-2.193L59.071 35H35V17.5zm-11.667 2.917v5.833h5.833v5.833h-5.833v5.833H17.5v-5.833h-5.833V26.25H17.5v-5.833h5.833zM46.544 17.5h-5.711v11.667h13.449L46.544 17.5z" fill="#017113"/></svg>
